components/Common/Svg/svgs/behanceRoundWhite.svg

<svg
  width="48"
  height="48"
  viewBox="0 0 48 48"
  fill="none"
  xmlns="http://www.w3.org/2000/svg"
>
  <path
    d="M28.3125 17.037H34.5469V18.5495H28.3125V17.037ZM22.0656 23.0214C23.4438 22.362 24.1656 21.3589 24.1656 19.8089C24.1656 16.7433 21.8844 15.9995 19.25 15.9995H12V31.387H19.4531C22.2469 31.387 24.8687 30.0432 24.8687 26.9182C24.8687 24.987 23.9563 23.5589 22.0656 23.0214ZM15.3812 18.6245H18.5531C19.775 18.6245 20.8719 18.9651 20.8719 20.3839C20.8719 21.6901 20.0188 22.2151 18.8094 22.2151H15.3812V18.6245ZM18.9906 28.7745H15.3781V24.537H19.0625C20.55 24.537 21.4906 25.1589 21.4906 26.7339C21.4906 28.2839 20.3688 28.7745 18.9906 28.7745ZM36.9844 25.9776C36.9844 22.6807 35.0562 19.9339 31.5688 19.9339C28.1781 19.9339 25.8719 22.487 25.8719 25.8339C25.8719 29.3026 28.0562 31.6839 31.5688 31.6839C34.2281 31.6839 35.95 30.487 36.7781 27.9339H34.0812C33.7875 28.887 32.5938 29.387 31.6656 29.387C29.8719 29.387 28.9344 28.337 28.9344 26.5526H36.9625C36.9719 26.3682 36.9844 26.1745 36.9844 25.9776ZM28.9344 24.6214C29.0312 23.1557 30.0094 22.2401 31.4719 22.2401C33.0094 22.2401 33.7781 23.1432 33.9125 24.6214H28.9344Z"
    fill="#171717"
  ></path>
  <circle
    opacity="0.3"
    cx="24"
    cy="24"
    r="23.5"
    stroke="#171717"
  ></circle>
</svg>

<svg width="48" height="48" viewBox="0 0 48 48" fill="none" xmlns="http://www.w3.org/2000/svg"><path d="M28.313 17.037h6.234v1.512h-6.234v-1.512Zm-6.247 5.984c1.378-.659 2.1-1.662 2.1-3.212 0-3.066-2.282-3.81-4.916-3.81H12v15.388h7.453c2.794 0 5.416-1.344 5.416-4.469 0-1.931-.913-3.36-2.803-3.897Zm-6.685-4.396h3.172c1.222 0 2.319.34 2.319 1.759 0 1.306-.853 1.831-2.063 1.831h-3.428v-3.59Zm3.61 10.15h-3.613v-4.238h3.684c1.488 0 2.429.622 2.429 2.197 0 1.55-1.122 2.04-2.5 2.04Zm17.993-2.797c0-3.297-1.928-6.044-5.415-6.044-3.39 0-5.697 2.553-5.697 5.9 0 3.469 2.184 5.85 5.697 5.85 2.66 0 4.381-1.197 5.21-3.75H34.08c-.294.953-1.487 1.453-2.415 1.453-1.794 0-2.732-1.05-2.732-2.834h8.028c.01-.185.022-.379.022-.575Zm-8.05-1.357c.097-1.465 1.075-2.38 2.538-2.38 1.537 0 2.306.902 2.44 2.38h-4.978Z" fill="#171717"/><circle opacity=".3" cx="24" cy="24" r="23.5" stroke="#171717"/></svg>
